public/img/69-1@3x.svg

<svg xmlns="http://www.w3.org/2000/svg" width="650" height="629" fill="none" viewBox="0 0 650 629"><g fill-rule="evenodd" clip-path="url(#a)" clip-rule="evenodd"><path fill="url(#b)" d="M165.196 505.13c91.165 91.165 242.16 88.112 340.101-9.83s100.995-248.936 9.83-340.101c-14.213-14.213-104.07 52.599-200.701 149.23S150.983 490.916 165.196 505.13m100.789 51.542c78.902 21.95 169.265.098 235.023-65.661s87.611-156.122 65.661-235.024c12.717 73.427-14.092 157.719-78.529 222.156s-148.729 91.246-222.155 78.529m217.866-82.818c-67.401 67.401-156.563 92.379-231.04 73.47 69.431 9.543 152.506-20.672 218.172-86.338 65.667-65.666 95.881-148.741 86.338-218.172 18.909 74.477-6.069 163.639-73.47 231.04m-244.02 64.594c69.661 15.843 157.59-12.477 226.863-81.751 69.274-69.273 97.594-157.202 81.751-226.863 1.747 17.988.434 37.238-3.783 57.062-11.059 51.989-42.115 108.213-90.836 156.933s-104.944 79.777-156.933 90.836c-19.824 4.217-39.074 5.53-57.062 3.783m56.176-9.934c-24.428 5.196-47.733 5.819-68.671 1.7 17.801.859 37.313-1.821 57.66-7.74 48.809-14.198 103.026-47.154 151.673-95.802 48.648-48.647 81.604-102.864 95.802-151.673 5.919-20.347 8.599-39.859 7.74-57.66 4.119 20.937 3.496 44.243-1.7 68.671-10.753 50.548-41.063 105.62-88.974 153.53-47.91 47.911-102.982 78.221-153.53 88.974m-80.305-5.835c19.979 3.145 43.095.989 67.938-6.238 47.518-13.823 100.757-46.075 148.74-94.058s80.235-101.222 94.058-148.74c7.227-24.843 9.383-47.96 6.238-67.938-.259 17.266-4.582 36.777-12.421 57.416-17.324 45.608-52.164 97.816-100.742 146.394s-100.787 83.419-146.395 100.743c-20.638 7.839-40.149 12.162-57.416 12.421m55.553-18.285c-25.209 9.575-47.863 13.493-66.422 11.503 16.242-1.583 35.455-7.782 56.421-17.886 42.389-20.43 92.587-57.138 141.102-105.653 48.514-48.514 85.222-98.712 105.652-141.101 10.104-20.966 16.303-40.179 17.886-56.421 1.991 18.559-1.927 41.213-11.503 66.422-16.907 44.509-51.116 95.916-99.168 143.968s-99.458 82.261-143.968 99.168m-76.447 5.567q4.434.173 9.388-.282c15.296-1.406 33.889-7.291 54.66-17.302 41.518-20.01 91.094-56.191 139.21-104.308 48.117-48.116 84.298-97.692 104.308-139.21 10.011-20.771 15.896-39.364 17.302-54.66q.454-4.954.282-9.388a86 86 0 0 1-.781 3.346c-3.621 14.218-11.708 31.686-23.45 51.244-23.511 39.158-62.075 87.347-110.528 135.8s-96.643 87.018-135.801 110.529c-19.557 11.742-37.026 19.829-51.244 23.449q-1.696.432-3.346.782m2.206-6.874c-6.488 1.652-11.925 2.228-16.352 1.849 32.601-11.631 106.679-70.481 185.235-149.036 78.555-78.556 137.405-152.634 149.036-185.236.379 4.428-.197 9.865-1.849 16.352-3.392 13.321-11.11 30.143-22.692 49.434-23.14 38.541-61.306 86.285-109.483 134.462s-95.921 86.343-134.462 109.483c-19.291 11.582-36.112 19.3-49.433 22.692m309.955-343.311c2.469-.404 3.35-.066 3.546.035.101.196.439 1.077.035 3.546-.507 3.101-2.019 7.487-4.784 13.201-5.497 11.359-15.238 26.539-28.642 44.566-26.747 35.973-67.365 82.335-115.516 130.487s-94.514 88.769-130.487 115.515c-18.027 13.405-33.207 23.146-44.566 28.643-5.714 2.765-10.1 4.277-13.201 4.784-2.469.404-3.35.066-3.546-.035-.101-.196-.439-1.078-.035-3.546.507-3.102 2.019-7.487 4.784-13.201 5.497-11.36 15.238-26.539 28.642-44.566 26.747-35.973 67.365-82.335 115.516-130.487s94.514-88.769 130.487-115.516c18.027-13.404 33.207-23.145 44.566-28.642 5.714-2.765 10.1-4.277 13.201-4.784"/><path fill="url(#c)" d="M139.136 479.069c-91.165-91.164-88.112-242.159 9.829-340.101 97.942-97.941 248.937-100.994 340.102-9.829 14.213 14.213-52.6 104.07-149.23 200.701-96.631 96.63-186.488 163.443-200.701 149.229M87.593 378.281c-21.95-78.902-.097-169.265 65.662-235.024 65.758-65.758 156.121-87.61 235.023-65.66-73.426-12.718-157.719 14.091-222.156 78.528s-91.246 148.73-78.529 222.156m82.819-217.867c-67.402 67.402-92.38 156.564-73.47 231.041-9.543-69.432 20.671-152.507 86.337-218.173s148.742-95.88 218.173-86.337c-74.477-18.91-163.639 6.068-231.04 73.469m-64.595 244.02c-15.842-69.66 12.478-157.589 81.752-226.863 69.273-69.273 157.202-97.593 226.863-81.75-17.988-1.748-37.238-.435-57.063 3.782-51.988 11.059-108.213 42.116-156.933 90.836s-79.776 104.945-90.835 156.933c-4.217 19.825-5.53 39.075-3.784 57.062m9.935-56.175c-5.196 24.428-5.819 47.733-1.7 68.671-.86-17.801 1.82-37.313 7.739-57.661 14.199-48.809 47.155-103.025 95.802-151.673s102.864-81.603 151.673-95.802c20.348-5.919 39.86-8.599 57.661-7.74-20.938-4.118-44.243-3.495-68.671 1.701-50.548 10.752-105.62 41.063-153.53 88.973-47.911 47.911-78.221 102.983-88.974 153.531m5.835 80.305c-3.146-19.979-.989-43.095 6.238-67.939 13.823-47.517 46.074-100.756 94.057-148.74 47.984-47.983 101.223-80.235 148.74-94.057 24.844-7.227 47.96-9.384 67.939-6.238-17.267.258-36.778 4.582-57.416 12.421-45.608 17.324-97.816 52.163-146.395 100.742-48.578 48.579-83.418 100.787-100.742 146.395-7.839 20.638-12.163 40.149-12.421 57.416m18.285-55.554c-9.576 25.21-13.494 47.863-11.503 66.422 1.582-16.242 7.781-35.455 17.886-56.42 20.43-42.389 57.138-92.588 105.652-141.102s98.713-85.222 141.102-105.652c20.966-10.105 40.178-16.304 56.42-17.886-18.558-1.991-41.212 1.927-66.422 11.503-44.509 16.906-95.916 51.115-143.968 99.167s-82.26 99.459-99.167 143.968m-5.568 76.448q-.171-4.434.283-9.388c1.405-15.296 7.291-33.89 17.301-54.66 20.011-41.519 56.192-91.094 104.308-139.211 48.117-48.116 97.692-84.297 139.211-104.308 20.771-10.01 39.364-15.896 54.66-17.301q4.954-.454 9.388-.283a85 85 0 0 0-3.347.782c-14.218 3.621-31.686 11.707-51.244 23.45-39.157 23.51-87.346 62.074-135.8 110.528s-87.018 96.643-110.528 135.8c-11.742 19.558-19.829 37.026-23.45 51.244a84 84 0 0 0-.782 3.347m6.874-2.206c-1.652 6.488-2.227 11.925-1.848 16.352 11.631-32.601 70.48-106.68 149.036-185.235S441 140.964 473.601 129.333c-4.427-.379-9.864.196-16.352 1.848-13.321 3.392-30.143 11.111-49.434 22.693-38.54 23.14-86.285 61.305-134.462 109.482s-86.342 95.922-109.482 134.462c-11.582 19.291-19.301 36.113-22.693 49.434M484.49 137.297c.404-2.469.066-3.351-.035-3.546-.196-.101-1.078-.439-3.547-.036-3.101.508-7.486 2.019-13.2 4.785-11.36 5.497-26.539 15.238-44.567 28.642-35.972 26.747-82.334 67.364-130.486 115.516s-88.769 94.514-115.516 130.486c-13.404 18.028-23.145 33.207-28.642 44.566-2.766 5.715-4.277 10.1-4.784 13.201-.404 2.469-.066 3.351.035 3.547.195.1 1.077.439 3.546.035 3.101-.508 7.486-2.019 13.201-4.784 11.359-5.498 26.538-15.238 44.566-28.643 35.972-26.747 82.335-67.364 130.486-115.516 48.152-48.151 88.769-94.514 115.516-130.486 13.405-18.028 23.145-33.207 28.643-44.566 2.765-5.715 4.277-10.1 4.784-13.201"/><path fill="url(#d)" d="M139.136 479.069c-91.165-91.164-88.112-242.159 9.829-340.101 97.942-97.941 248.937-100.994 340.102-9.829 14.213 14.213-52.6 104.07-149.23 200.701-96.631 96.63-186.488 163.443-200.701 149.229M87.593 378.281c-21.95-78.902-.097-169.265 65.662-235.024 65.758-65.758 156.121-87.61 235.023-65.66-73.426-12.718-157.719 14.091-222.156 78.528s-91.246 148.73-78.529 222.156m82.819-217.867c-67.402 67.402-92.38 156.564-73.47 231.041-9.543-69.432 20.671-152.507 86.337-218.173s148.742-95.88 218.173-86.337c-74.477-18.91-163.639 6.068-231.04 73.469m-64.595 244.02c-15.842-69.66 12.478-157.589 81.752-226.863 69.273-69.273 157.202-97.593 226.863-81.75-17.988-1.748-37.238-.435-57.063 3.782-51.988 11.059-108.213 42.116-156.933 90.836s-79.776 104.945-90.835 156.933c-4.217 19.825-5.53 39.075-3.784 57.062m9.935-56.175c-5.196 24.428-5.819 47.733-1.7 68.671-.86-17.801 1.82-37.313 7.739-57.661 14.199-48.809 47.155-103.025 95.802-151.673s102.864-81.603 151.673-95.802c20.348-5.919 39.86-8.599 57.661-7.74-20.938-4.118-44.243-3.495-68.671 1.701-50.548 10.752-105.62 41.063-153.53 88.973-47.911 47.911-78.221 102.983-88.974 153.531m5.835 80.305c-3.146-19.979-.989-43.095 6.238-67.939 13.823-47.517 46.074-100.756 94.057-148.74 47.984-47.983 101.223-80.235 148.74-94.057 24.844-7.227 47.96-9.384 67.939-6.238-17.267.258-36.778 4.582-57.416 12.421-45.608 17.324-97.816 52.163-146.395 100.742-48.578 48.579-83.418 100.787-100.742 146.395-7.839 20.638-12.163 40.149-12.421 57.416m18.285-55.554c-9.576 25.21-13.494 47.863-11.503 66.422 1.582-16.242 7.781-35.455 17.886-56.42 20.43-42.389 57.138-92.588 105.652-141.102s98.713-85.222 141.102-105.652c20.966-10.105 40.178-16.304 56.42-17.886-18.558-1.991-41.212 1.927-66.422 11.503-44.509 16.906-95.916 51.115-143.968 99.167s-82.26 99.459-99.167 143.968m-5.568 76.448q-.171-4.434.283-9.388c1.405-15.296 7.291-33.89 17.301-54.66 20.011-41.519 56.192-91.094 104.308-139.211 48.117-48.116 97.692-84.297 139.211-104.308 20.771-10.01 39.364-15.896 54.66-17.301q4.954-.454 9.388-.283a85 85 0 0 0-3.347.782c-14.218 3.621-31.686 11.707-51.244 23.45-39.157 23.51-87.346 62.074-135.8 110.528s-87.018 96.643-110.528 135.8c-11.742 19.558-19.829 37.026-23.45 51.244a84 84 0 0 0-.782 3.347m6.874-2.206c-1.652 6.488-2.227 11.925-1.848 16.352 11.631-32.601 70.48-106.68 149.036-185.235S441 140.964 473.601 129.333c-4.427-.379-9.864.196-16.352 1.848-13.321 3.392-30.143 11.111-49.434 22.693-38.54 23.14-86.285 61.305-134.462 109.482s-86.342 95.922-109.482 134.462c-11.582 19.291-19.301 36.113-22.693 49.434M484.49 137.297c.404-2.469.066-3.351-.035-3.546-.196-.101-1.078-.439-3.547-.036-3.101.508-7.486 2.019-13.2 4.785-11.36 5.497-26.539 15.238-44.567 28.642-35.972 26.747-82.334 67.364-130.486 115.516s-88.769 94.514-115.516 130.486c-13.404 18.028-23.145 33.207-28.642 44.566-2.766 5.715-4.277 10.1-4.784 13.201-.404 2.469-.066 3.351.035 3.547.195.1 1.077.439 3.546.035 3.101-.508 7.486-2.019 13.201-4.784 11.359-5.498 26.538-15.238 44.566-28.643 35.972-26.747 82.335-67.364 130.486-115.516 48.152-48.151 88.769-94.514 115.516-130.486 13.405-18.028 23.145-33.207 28.643-44.566 2.765-5.715 4.277-10.1 4.784-13.201"/></g><defs><linearGradient id="b" x1="314.426" x2="783" y1="304.429" y2="775.501" gradientUnits="userSpaceOnUse"><stop offset=".5" stop-color="#ff8633"/><stop offset="1" stop-color="#fff2e8"/></linearGradient><linearGradient id="c" x1="116.321" x2="348.59" y1="110.853" y2="339.213" gradientUnits="userSpaceOnUse"><stop stop-color="#fff"/><stop offset="1" stop-color="#fff" stop-opacity="0"/></linearGradient><linearGradient id="d" x1="148.965" x2="381.5" y1="138.968" y2="374.001" gradientUnits="userSpaceOnUse"><stop stop-color="#ba8c27"/><stop offset="1" stop-color="#ffa366"/></linearGradient><clipPath id="a"><path fill="#fff" d="M0-10h650v650H0z"/></clipPath></defs></svg>

<svg width="650" height="629" viewBox="0 0 650 629" fill="none" xmlns="http://www.w3.org/2000/svg">
<g clip-path="url(#clip0_1620_427)">
<path fill-rule="evenodd" clip-rule="evenodd" d="M165.196 505.13C256.361 596.295 407.356 593.242 505.297 495.3C603.239 397.359 606.292 246.364 515.127 155.199C500.914 140.986 411.057 207.798 314.426 304.429C217.795 401.06 150.983 490.916 165.196 505.13ZM265.985 556.672C344.887 578.622 435.25 556.77 501.008 491.011C566.767 425.252 588.619 334.889 566.669 255.987C579.386 329.414 552.577 413.706 488.14 478.143C423.703 542.58 339.411 569.389 265.985 556.672ZM483.851 473.854C416.45 541.255 327.288 566.233 252.811 547.324C322.242 556.867 405.317 526.652 470.983 460.986C536.65 395.32 566.864 312.245 557.321 242.814C576.23 317.291 551.252 406.453 483.851 473.854ZM239.831 538.448C309.492 554.291 397.421 525.971 466.694 456.697C535.968 387.424 564.288 299.495 548.445 229.834C550.192 247.822 548.879 267.072 544.662 286.896C533.603 338.885 502.547 395.109 453.826 443.829C405.106 492.55 348.882 523.606 296.893 534.665C277.069 538.882 257.819 540.195 239.831 538.448ZM296.007 528.514C271.579 533.71 248.274 534.333 227.336 530.214C245.137 531.073 264.649 528.393 284.996 522.474C333.805 508.276 388.022 475.32 436.669 426.672C485.317 378.025 518.273 323.808 532.471 274.999C538.39 254.652 541.07 235.14 540.211 217.339C544.33 238.276 543.707 261.582 538.511 286.01C527.758 336.558 497.448 391.63 449.537 439.54C401.627 487.451 346.555 517.761 296.007 528.514ZM215.702 522.679C235.681 525.824 258.797 523.668 283.64 516.441C331.158 502.618 384.397 470.366 432.38 422.383C480.363 374.4 512.615 321.161 526.438 273.643C533.665 248.8 535.821 225.683 532.676 205.705C532.417 222.971 528.094 242.482 520.255 263.121C502.931 308.729 468.091 360.937 419.513 409.515C370.934 458.094 318.726 492.934 273.118 510.258C252.48 518.097 232.969 522.42 215.702 522.679ZM271.255 504.394C246.046 513.969 223.392 517.887 204.833 515.897C221.075 514.314 240.288 508.115 261.254 498.011C303.643 477.581 353.841 440.873 402.356 392.358C450.87 343.844 487.578 293.646 508.008 251.257C518.112 230.291 524.311 211.078 525.894 194.836C527.885 213.395 523.967 236.049 514.391 261.258C497.484 305.767 463.275 357.174 415.223 405.226C367.171 453.278 315.765 487.487 271.255 504.394ZM194.808 509.961C197.763 510.076 200.894 509.982 204.196 509.679C219.492 508.273 238.085 502.388 258.856 492.377C300.374 472.367 349.95 436.186 398.066 388.069C446.183 339.953 482.364 290.377 502.374 248.859C512.385 228.088 518.27 209.495 519.676 194.199C519.979 190.897 520.073 187.766 519.958 184.811C519.725 185.911 519.464 187.027 519.177 188.157C515.556 202.375 507.469 219.843 495.727 239.401C472.216 278.559 433.652 326.748 385.199 375.201C336.745 423.655 288.556 462.219 249.398 485.73C229.841 497.472 212.372 505.559 198.154 509.179C197.024 509.467 195.908 509.728 194.808 509.961ZM197.014 503.087C190.526 504.739 185.089 505.315 180.662 504.936C213.263 493.305 287.341 434.455 365.897 355.9C444.452 277.344 503.302 203.266 514.933 170.664C515.312 175.092 514.736 180.529 513.084 187.016C509.692 200.337 501.974 217.159 490.392 236.45C467.252 274.991 429.086 322.735 380.909 370.912C332.732 419.089 284.988 457.255 246.447 480.395C227.156 491.977 210.335 499.695 197.014 503.087ZM506.969 159.776C509.438 159.372 510.319 159.71 510.515 159.811C510.616 160.007 510.954 160.888 510.55 163.357C510.043 166.458 508.531 170.844 505.766 176.558C500.269 187.917 490.528 203.097 477.124 221.124C450.377 257.097 409.759 303.459 361.608 351.611C313.456 399.762 267.094 440.38 231.121 467.126C213.094 480.531 197.914 490.272 186.555 495.769C180.841 498.534 176.455 500.046 173.354 500.553C170.885 500.957 170.004 500.619 169.808 500.518C169.707 500.322 169.369 499.44 169.773 496.972C170.28 493.87 171.792 489.485 174.557 483.771C180.054 472.411 189.795 457.232 203.199 439.205C229.946 403.232 270.564 356.87 318.715 308.718C366.867 260.567 413.229 219.949 449.202 193.202C467.229 179.798 482.409 170.057 493.768 164.56C499.482 161.795 503.868 160.283 506.969 159.776Z" fill="url(#paint0_linear_1620_427)"/>
<path fill-rule="evenodd" clip-rule="evenodd" d="M139.136 479.069C47.9711 387.905 51.0236 236.91 148.965 138.968C246.907 41.0265 397.902 37.974 489.067 129.139C503.28 143.352 436.467 233.209 339.837 329.84C243.206 426.47 153.349 493.283 139.136 479.069ZM87.5932 378.281C65.6438 299.379 87.4961 209.016 153.255 143.257C219.013 77.4989 309.376 55.6467 388.278 77.5962C314.852 64.8795 230.559 91.6883 166.122 156.125C101.685 220.562 74.8765 304.855 87.5932 378.281ZM170.412 160.414C103.01 227.816 78.0326 316.978 96.9416 391.455C87.3987 322.023 117.613 238.948 183.279 173.282C248.945 107.616 332.021 77.4017 401.452 86.9445C326.975 68.0354 237.813 93.0132 170.412 160.414ZM105.817 404.434C89.9747 334.774 118.295 246.845 187.569 177.571C256.842 108.298 344.771 79.9775 414.432 95.8203C396.444 94.0734 377.194 95.3864 357.369 99.6035C305.381 110.662 249.156 141.719 200.436 190.439C151.716 239.159 120.66 295.384 109.601 347.372C105.384 367.197 104.071 386.447 105.817 404.434ZM115.752 348.259C110.556 372.687 109.933 395.992 114.052 416.93C113.192 399.129 115.872 379.617 121.791 359.269C135.99 310.46 168.946 256.244 217.593 207.596C266.241 158.949 320.457 125.993 369.266 111.794C389.614 105.875 409.126 103.195 426.927 104.054C405.989 99.936 382.684 100.559 358.256 105.755C307.708 116.507 252.636 146.818 204.726 194.728C156.815 242.639 126.505 297.711 115.752 348.259ZM121.587 428.564C118.441 408.585 120.598 385.469 127.825 360.625C141.648 313.108 173.899 259.869 221.882 211.885C269.866 163.902 323.105 131.65 370.622 117.828C395.466 110.601 418.582 108.444 438.561 111.59C421.294 111.848 401.783 116.172 381.145 124.011C335.537 141.335 283.329 176.174 234.75 224.753C186.172 273.332 151.332 325.54 134.008 371.148C126.169 391.786 121.845 411.297 121.587 428.564ZM139.872 373.01C130.296 398.22 126.378 420.873 128.369 439.432C129.951 423.19 136.15 403.977 146.255 383.012C166.685 340.623 203.393 290.424 251.907 241.91C300.421 193.396 350.62 156.688 393.009 136.258C413.975 126.153 433.187 119.954 449.429 118.372C430.871 116.381 408.217 120.299 383.007 129.875C338.498 146.781 287.091 180.99 239.039 229.042C190.987 277.094 156.779 328.501 139.872 373.01ZM134.304 449.458C134.19 446.503 134.284 443.372 134.587 440.07C135.992 424.774 141.878 406.18 151.888 385.41C171.899 343.891 208.08 294.316 256.196 246.199C304.313 198.083 353.888 161.902 395.407 141.891C416.178 131.881 434.771 125.995 450.067 124.59C453.369 124.287 456.5 124.193 459.455 124.307C458.355 124.54 457.239 124.801 456.108 125.089C441.89 128.71 424.422 136.796 404.864 148.539C365.707 172.049 317.518 210.613 269.064 259.067C220.61 307.521 182.046 355.71 158.536 394.867C146.794 414.425 138.707 431.893 135.086 446.111C134.798 447.241 134.537 448.358 134.304 449.458ZM141.178 447.252C139.526 453.74 138.951 459.177 139.33 463.604C150.961 431.003 209.81 356.924 288.366 278.369C366.921 199.813 441 140.964 473.601 129.333C469.174 128.954 463.737 129.529 457.249 131.181C443.928 134.573 427.106 142.292 407.815 153.874C369.275 177.014 321.53 215.179 273.353 263.356C225.176 311.533 187.011 359.278 163.871 397.818C152.289 417.109 144.57 433.931 141.178 447.252ZM484.49 137.297C484.894 134.828 484.556 133.946 484.455 133.751C484.259 133.65 483.377 133.312 480.908 133.715C477.807 134.223 473.422 135.734 467.708 138.5C456.348 143.997 441.169 153.738 423.141 167.142C387.169 193.889 340.807 234.506 292.655 282.658C244.503 330.81 203.886 377.172 177.139 413.144C163.735 431.172 153.994 446.351 148.497 457.71C145.731 463.425 144.22 467.81 143.713 470.911C143.309 473.38 143.647 474.262 143.748 474.458C143.943 474.558 144.825 474.897 147.294 474.493C150.395 473.985 154.78 472.474 160.495 469.709C171.854 464.211 187.033 454.471 205.061 441.066C241.033 414.319 287.396 373.702 335.547 325.55C383.699 277.399 424.316 231.036 451.063 195.064C464.468 177.036 474.208 161.857 479.706 150.498C482.471 144.783 483.983 140.398 484.49 137.297Z" fill="url(#paint1_linear_1620_427)"/>
<path fill-rule="evenodd" clip-rule="evenodd" d="M139.136 479.069C47.9711 387.905 51.0236 236.91 148.965 138.968C246.907 41.0265 397.902 37.974 489.067 129.139C503.28 143.352 436.467 233.209 339.837 329.84C243.206 426.47 153.349 493.283 139.136 479.069ZM87.5932 378.281C65.6438 299.379 87.4961 209.016 153.255 143.257C219.013 77.4989 309.376 55.6467 388.278 77.5962C314.852 64.8795 230.559 91.6883 166.122 156.125C101.685 220.562 74.8765 304.855 87.5932 378.281ZM170.412 160.414C103.01 227.816 78.0326 316.978 96.9416 391.455C87.3987 322.023 117.613 238.948 183.279 173.282C248.945 107.616 332.021 77.4017 401.452 86.9445C326.975 68.0354 237.813 93.0132 170.412 160.414ZM105.817 404.434C89.9747 334.774 118.295 246.845 187.569 177.571C256.842 108.298 344.771 79.9775 414.432 95.8203C396.444 94.0734 377.194 95.3864 357.369 99.6035C305.381 110.662 249.156 141.719 200.436 190.439C151.716 239.159 120.66 295.384 109.601 347.372C105.384 367.197 104.071 386.447 105.817 404.434ZM115.752 348.259C110.556 372.687 109.933 395.992 114.052 416.93C113.192 399.129 115.872 379.617 121.791 359.269C135.99 310.46 168.946 256.244 217.593 207.596C266.241 158.949 320.457 125.993 369.266 111.794C389.614 105.875 409.126 103.195 426.927 104.054C405.989 99.936 382.684 100.559 358.256 105.755C307.708 116.507 252.636 146.818 204.726 194.728C156.815 242.639 126.505 297.711 115.752 348.259ZM121.587 428.564C118.441 408.585 120.598 385.469 127.825 360.625C141.648 313.108 173.899 259.869 221.882 211.885C269.866 163.902 323.105 131.65 370.622 117.828C395.466 110.601 418.582 108.444 438.561 111.59C421.294 111.848 401.783 116.172 381.145 124.011C335.537 141.335 283.329 176.174 234.75 224.753C186.172 273.332 151.332 325.54 134.008 371.148C126.169 391.786 121.845 411.297 121.587 428.564ZM139.872 373.01C130.296 398.22 126.378 420.873 128.369 439.432C129.951 423.19 136.15 403.977 146.255 383.012C166.685 340.623 203.393 290.424 251.907 241.91C300.421 193.396 350.62 156.688 393.009 136.258C413.975 126.153 433.187 119.954 449.429 118.372C430.871 116.381 408.217 120.299 383.007 129.875C338.498 146.781 287.091 180.99 239.039 229.042C190.987 277.094 156.779 328.501 139.872 373.01ZM134.304 449.458C134.19 446.503 134.284 443.372 134.587 440.07C135.992 424.774 141.878 406.18 151.888 385.41C171.899 343.891 208.08 294.316 256.196 246.199C304.313 198.083 353.888 161.902 395.407 141.891C416.178 131.881 434.771 125.995 450.067 124.59C453.369 124.287 456.5 124.193 459.455 124.307C458.355 124.54 457.239 124.801 456.108 125.089C441.89 128.71 424.422 136.796 404.864 148.539C365.707 172.049 317.518 210.613 269.064 259.067C220.61 307.521 182.046 355.71 158.536 394.867C146.794 414.425 138.707 431.893 135.086 446.111C134.798 447.241 134.537 448.358 134.304 449.458ZM141.178 447.252C139.526 453.74 138.951 459.177 139.33 463.604C150.961 431.003 209.81 356.924 288.366 278.369C366.921 199.813 441 140.964 473.601 129.333C469.174 128.954 463.737 129.529 457.249 131.181C443.928 134.573 427.106 142.292 407.815 153.874C369.275 177.014 321.53 215.179 273.353 263.356C225.176 311.533 187.011 359.278 163.871 397.818C152.289 417.109 144.57 433.931 141.178 447.252ZM484.49 137.297C484.894 134.828 484.556 133.946 484.455 133.751C484.259 133.65 483.377 133.312 480.908 133.715C477.807 134.223 473.422 135.734 467.708 138.5C456.348 143.997 441.169 153.738 423.141 167.142C387.169 193.889 340.807 234.506 292.655 282.658C244.503 330.81 203.886 377.172 177.139 413.144C163.735 431.172 153.994 446.351 148.497 457.71C145.731 463.425 144.22 467.81 143.713 470.911C143.309 473.38 143.647 474.262 143.748 474.458C143.943 474.558 144.825 474.897 147.294 474.493C150.395 473.985 154.78 472.474 160.495 469.709C171.854 464.211 187.033 454.471 205.061 441.066C241.033 414.319 287.396 373.702 335.547 325.55C383.699 277.399 424.316 231.036 451.063 195.064C464.468 177.036 474.208 161.857 479.706 150.498C482.471 144.783 483.983 140.398 484.49 137.297Z" fill="url(#paint2_linear_1620_427)"/>
</g>
<defs>
<linearGradient id="paint0_linear_1620_427" x1="314.426" y1="304.429" x2="783" y2="775.501" gradientUnits="userSpaceOnUse">
<stop offset="0.5" stop-color="#FF8633"/>
<stop offset="1" stop-color="#FFF2E8"/>
</linearGradient>
<linearGradient id="paint1_linear_1620_427" x1="116.321" y1="110.853" x2="348.59" y2="339.213" gradientUnits="userSpaceOnUse">
<stop stop-color="white"/>
<stop offset="1" stop-color="white" stop-opacity="0"/>
</linearGradient>
<linearGradient id="paint2_linear_1620_427" x1="148.965" y1="138.968" x2="381.5" y2="374.001" gradientUnits="userSpaceOnUse">
<stop stop-color="#BA8C27"/>
<stop offset="1" stop-color="#FFA366"/>
</linearGradient>
<clipPath id="clip0_1620_427">
<rect width="650" height="650" fill="white" transform="translate(0 -10)"/>
</clipPath>
</defs>
</svg>
